website/media/images/svg/email-green.svg

<svg width="12" height="9" viewBox="0 0 12 9" fill="none" xmlns="http://www.w3.org/2000/svg">
<path d="M10.125 0H1.875C0.841219 0 0 0.841219 0 1.875V7.125C0 8.15878 0.841219 9 1.875 9H10.125C11.1588 9 12 8.15878 12 7.125V1.875C12 0.841219 11.1588 0 10.125 0ZM11.25 7.125C11.25 7.74534 10.7453 8.25 10.125 8.25H1.875C1.25466 8.25 0.75 7.74534 0.75 7.125V1.875C0.75 1.25466 1.25466 0.75 1.875 0.75H10.125C10.7453 0.75 11.25 1.25466 11.25 1.875V7.125ZM10.3901 2.14012L8.03025 4.5L10.3901 6.85987C10.5367 7.00641 10.5367 7.24369 10.3901 7.39013C10.3169 7.46334 10.2209 7.5 10.125 7.5C10.0291 7.5 9.93309 7.46334 9.85987 7.39013L7.5 5.03025L6.26513 6.26513C6.19191 6.33834 6.09591 6.375 6 6.375C5.90409 6.375 5.80809 6.33834 5.73488 6.26513L4.5 5.03025L2.14012 7.39013C2.06691 7.46334 1.97091 7.5 1.875 7.5C1.77909 7.5 1.68309 7.46334 1.60988 7.39013C1.46334 7.24359 1.46334 7.00631 1.60988 6.85987L3.96975 4.5L1.60988 2.14012C1.46334 1.99359 1.46334 1.75631 1.60988 1.60988C1.75641 1.46344 1.99369 1.46334 2.14012 1.60988L6 5.46975L9.85987 1.60988C10.0064 1.46334 10.2437 1.46334 10.3901 1.60988C10.5366 1.75641 10.5367 1.99369 10.3901 2.14012Z" fill="#009846"/>
</svg>

<svg width="12" height="9" viewBox="0 0 12 9" fill="none" xmlns="http://www.w3.org/2000/svg"><path d="M10.125 0h-8.25A1.877 1.877 0 000 1.875v5.25C0 8.159.841 9 1.875 9h8.25A1.877 1.877 0 0012 7.125v-5.25A1.877 1.877 0 0010.125 0zm1.125 7.125c0 .62-.505 1.125-1.125 1.125h-8.25C1.255 8.25.75 7.745.75 7.125v-5.25c0-.62.505-1.125 1.125-1.125h8.25c.62 0 1.125.505 1.125 1.125v5.25zm-.86-4.985L8.03 4.5l2.36 2.36a.375.375 0 11-.53.53L7.5 5.03 6.265 6.265a.374.374 0 01-.53 0L4.5 5.03 2.14 7.39a.374.374 0 01-.53 0 .375.375 0 010-.53L3.97 4.5 1.61 2.14a.375.375 0 11.53-.53L6 5.47l3.86-3.86a.375.375 0 11.53.53z" fill="#009846"/></svg>
